X:57
T:T031G- Emon Acnuck-Jig
S:Ryan's Mammoth/ 1000 Fiddle Tunes
Q:1/4=120
L:1/8
M:6/8
K:Am
B|cAd cAG|EGE GAB|cAd cAG|EAA(A2B)|\
cAd cAG|EGE GAB|cAd cAG|EAA A2::\
gag ged|cAA cde|eaa age|(ed)dd2(e/^f/)|\
gag ged|cAA cde|fed cAG|EAA A2:|]

